X:48
T:Ton doubl
C:Trad 2, 28
M:4/4
L:1/8
K:G
GB cB G2 FG|AB c/B/A GB A2|\
AB cB G2 FG|AB c/B/A G2G2:|
|:Bc de dB d2|d/c/B AB GB A2|\
Bc de dB d2|d/c/B AB G2G2:|
